X:17
T:Whittingham Fair
Z:Jack Campin, http://www.campin.me.uk/
S:Northumbrian Minstrelsy
M:6/8
L:1/8
K:E Minor
   E2   E  G A  B| A B  G   F3 |\
  (E`F) E (G`A) B| B c  A  HB2
e| e2   B (B`A) G| A B  d  (FE) \
D| E2   E  G A  B|(A`F) G   E3|]

